X:98
T:John Kanaka
M:C|
L:1/8
Q:1/4=3D140
K:F
c c3A|\
c3A  F2G2|A4 F2zG|AAAA G2C2|F3c c3A |
c3A  AF2G|A4 F2zG|AAAA G2C2|F3z c2A2|
c2f2 d2A2|c4 F2zG|AAAA G2C2|F3 ||
